X:1
T:I've Got a Bonnet
N:from the box playing of Sally Sloane
Z:Ian Hayden 2017
L:1/8
M:2/4
K:C
|:Gc e2|ff e2|ed d2>e|dc c2:|
|:gG G2|AG G2|ed d>e|dc c2:|
